web/public/images/startup-logos/teamstream.svg

<svg width="293" height="49" viewBox="0 0 293 49" fill="none" xmlns="http://www.w3.org/2000/svg">
<path d="M62.5977 0.0482056C67.4362 -0.490129 71.5431 3.55622 71.0681 8.39358L67.7583 42.0996C67.3636 46.1184 63.9071 49.138 59.8651 48.9951L20.8585 47.616L56.8814 43.354C58.6751 43.1418 60.0764 41.7071 60.2437 39.9115L63.0276 10.0325C63.2531 7.61193 61.1884 5.5987 58.77 5.88102L7.43014 11.8744C5.36187 12.1158 3.86595 13.9631 4.06264 16.0328L6.52716 41.9667C6.47923 41.811 6.43602 41.653 6.39772 41.4929L0.211998 15.6302C-0.857285 11.1595 2.23752 6.764 6.813 6.25492L62.5977 0.0482056Z" fill="white"/>
<path d="M46.6445 9.32928L57.0076 9.32928C58.1639 9.32928 59.1401 10.1873 59.2866 11.3325L60.3198 19.4067L60.9833 10.2493C61.0881 8.80204 59.8377 7.62241 58.3964 7.80888L46.6445 9.32928Z" fill="white"/>
<path d="M15.8608 30.8056L15.8309 36.4763C15.8309 37.2639 16.0501 37.8448 16.4885 38.2189C16.9268 38.593 17.4848 38.7801 18.1623 38.7801C18.501 38.7801 18.9493 38.7309 19.5072 38.6324V42.472C18.6704 42.5901 17.8634 42.6492 17.0863 42.6492C15.3328 42.6492 13.9479 42.2259 12.9317 41.3792C11.9354 40.5128 11.4472 39.2231 11.4672 37.5101L11.497 30.8056H8.6875V27.0841H11.5269L11.5568 22.0336H15.9206L15.8907 27.0841H19.5072V30.8056H15.8608Z" fill="white"/>
<path d="M28.7816 26.7888C30.6746 26.7888 32.1491 27.2416 33.2052 28.1474C34.2812 29.0531 34.8889 30.2444 35.0284 31.7211L30.6945 31.9574C30.6348 30.7169 29.9772 30.0967 28.7219 30.0967C27.5462 30.0967 26.9584 30.5299 26.9584 31.3963C26.9584 31.5144 26.9684 31.6227 26.9883 31.7211C27.0082 31.8196 27.0481 31.9082 27.1079 31.987C27.1876 32.0657 27.2573 32.1346 27.3171 32.1937C27.3769 32.2528 27.4765 32.3119 27.616 32.3709C27.7555 32.43 27.8651 32.4792 27.9448 32.5186C28.0444 32.558 28.1839 32.6072 28.3632 32.6663C28.5625 32.7253 28.7219 32.7746 28.8414 32.814C28.961 32.8336 29.1403 32.873 29.3794 32.9321C29.6385 32.9912 29.8377 33.0404 29.9772 33.0798C31.7506 33.5326 33.0657 34.084 33.9225 34.7337C34.7993 35.3638 35.2376 36.3188 35.2376 37.5987C35.2376 39.1739 34.6797 40.4144 33.5639 41.3201C32.448 42.2259 30.8938 42.6787 28.9012 42.6787C26.9285 42.6787 25.3743 42.2554 24.2385 41.4087C23.1227 40.5424 22.4851 39.3117 22.3257 37.7168L26.6894 37.4805C26.7492 38.7407 27.4964 39.3708 28.9311 39.3708C29.5289 39.3708 29.9971 39.2526 30.3359 39.0164C30.6945 38.7604 30.8739 38.4158 30.8739 37.9826C30.8739 37.5298 30.6846 37.195 30.306 36.9784C29.9473 36.7618 29.2001 36.5157 28.0643 36.24C27.2673 36.0431 26.6396 35.8758 26.1813 35.7379C25.743 35.6001 25.2548 35.4131 24.7168 35.1768C24.1987 34.9208 23.8101 34.6451 23.5511 34.3498C23.2921 34.0544 23.0629 33.6803 22.8637 33.2274C22.6843 32.7549 22.5947 32.2134 22.5947 31.603C22.5947 30.1262 23.1426 28.9547 24.2385 28.0883C25.3345 27.2219 26.8488 26.7888 28.7816 26.7888Z" fill="white"/>
<path d="M182.982 19.8103C185.157 19.8103 186.851 20.3359 188.064 21.3871C189.3 22.4383 189.998 23.8208 190.158 25.5347L185.18 25.8089C185.111 24.3693 184.356 23.6494 182.914 23.6494C181.563 23.6494 180.888 24.1522 180.888 25.1577C180.888 25.2948 180.899 25.4205 180.922 25.5347C180.945 25.649 180.991 25.7518 181.06 25.8432C181.151 25.9346 181.231 26.0146 181.3 26.0832C181.369 26.1517 181.483 26.2203 181.643 26.2888C181.804 26.3574 181.929 26.4145 182.021 26.4602C182.135 26.5059 182.296 26.563 182.502 26.6316C182.731 26.7002 182.914 26.7573 183.051 26.803C183.188 26.8258 183.394 26.8715 183.669 26.9401C183.967 27.0087 184.195 27.0658 184.356 27.1115C186.393 27.6371 187.903 28.2769 188.888 29.031C189.895 29.7623 190.398 30.8706 190.398 32.356C190.398 34.1841 189.757 35.6238 188.476 36.675C187.194 37.7262 185.409 38.2518 183.12 38.2518C180.854 38.2518 179.068 37.7604 177.764 36.7778C176.482 35.7723 175.75 34.3441 175.566 32.4931L180.579 32.2189C180.648 33.6814 181.506 34.4126 183.154 34.4126C183.841 34.4126 184.379 34.2755 184.768 34.0013C185.18 33.7042 185.386 33.3043 185.386 32.8016C185.386 32.276 185.168 31.8875 184.733 31.6362C184.321 31.3848 183.463 31.0991 182.158 30.7792C181.243 30.5507 180.522 30.3565 179.995 30.1965C179.492 30.0365 178.931 29.8194 178.313 29.5452C177.718 29.2481 177.272 28.9282 176.974 28.5854C176.677 28.2427 176.413 27.8085 176.184 27.2829C175.978 26.7344 175.875 26.106 175.875 25.3976C175.875 23.6837 176.505 22.324 177.764 21.3186C179.023 20.3131 180.762 19.8103 182.982 19.8103Z" fill="white"/>
<path d="M201.449 24.4721L201.414 31.0534C201.414 31.9675 201.666 32.6416 202.17 33.0758C202.673 33.51 203.314 33.7271 204.092 33.7271C204.481 33.7271 204.996 33.67 205.637 33.5557V38.0118C204.676 38.1489 203.749 38.2175 202.856 38.2175C200.842 38.2175 199.251 37.7262 198.084 36.7435C196.94 35.7381 196.379 34.2413 196.402 32.2532L196.436 24.4721H193.209V20.1531H196.47L196.505 14.2916H201.517L201.483 20.1531H205.637V24.4721H201.449Z" fill="white"/>
<path d="M219.93 19.9817V24.8149C218.488 24.8149 217.344 25.1919 216.497 25.9461C215.65 26.6773 215.226 27.6599 215.226 28.8939V37.8747H210.214V20.1531H215.055V22.1755C215.993 20.713 217.618 19.9817 219.93 19.9817Z" fill="white"/>
<path d="M240.701 30.6078H228.512C228.558 31.7276 228.902 32.6074 229.542 33.2472C230.206 33.8871 231.099 34.207 232.22 34.207C234.006 34.207 235.093 33.5557 235.482 32.2532L240.529 32.4931C240.209 34.1841 239.282 35.5667 237.748 36.6407C236.237 37.7147 234.441 38.2518 232.358 38.2518C229.611 38.2518 227.391 37.4177 225.697 35.7495C224.026 34.0813 223.191 31.8418 223.191 29.031C223.191 26.1974 224.026 23.9579 225.697 22.3126C227.368 20.6444 229.542 19.8103 232.22 19.8103C234.807 19.8103 236.867 20.5987 238.4 22.1755C239.934 23.7294 240.701 25.8775 240.701 28.6197V30.6078ZM232.186 23.718C231.11 23.718 230.241 24.0379 229.577 24.6778C228.936 25.2948 228.581 26.1631 228.512 27.2829H235.654C235.608 26.1631 235.287 25.2948 234.692 24.6778C234.12 24.0379 233.285 23.718 232.186 23.718Z" fill="white"/>
<path d="M252.637 19.8103C255.04 19.8103 256.871 20.4159 258.13 21.6271C259.389 22.8382 260.018 24.6092 260.018 26.9401V37.8747H255.177V36.435C254.01 37.6462 252.499 38.2518 250.645 38.2518C248.814 38.2518 247.372 37.8061 246.319 36.9149C245.267 36.0008 244.74 34.6983 244.74 33.0073C244.74 29.6252 247.109 27.8313 251.847 27.6257L255.006 27.4543V26.7687C255.006 24.9406 254.239 24.0265 252.705 24.0265C251.904 24.0265 251.286 24.255 250.851 24.7121C250.439 25.1691 250.233 25.7175 250.233 26.3574L245.221 26.1517C245.221 24.5064 245.907 23.0439 247.281 21.7642C248.677 20.4616 250.462 19.8103 252.637 19.8103ZM255.006 30.7449L252.328 30.9163C250.611 30.9849 249.753 31.6019 249.753 32.7673C249.753 33.8414 250.439 34.3784 251.813 34.3784C252.751 34.3784 253.518 34.127 254.113 33.6243C254.708 33.1215 255.006 32.4131 255.006 31.499V30.7449Z" fill="white"/>
<path d="M286.271 19.8103C288.308 19.8103 289.933 20.4616 291.146 21.7642C292.382 23.0439 293 24.792 293 27.0087V37.8747H287.987V28.0027C287.987 26.8601 287.736 25.9918 287.232 25.3976C286.728 24.7806 285.996 24.4721 285.035 24.4721C284.165 24.4721 283.455 24.7349 282.906 25.2605C282.38 25.7861 282.059 26.5059 281.945 27.42V37.8747H276.932V28.0027C276.932 26.883 276.68 26.0146 276.177 25.3976C275.673 24.7806 274.964 24.4721 274.048 24.4721C273.064 24.4721 272.286 24.8035 271.714 25.4662C271.141 26.106 270.855 26.963 270.855 28.037V37.8747H265.843V20.1531H270.581V21.9698C271.496 20.5302 273.053 19.8103 275.25 19.8103C277.745 19.8103 279.599 20.7473 280.812 22.6211C282.002 20.7473 283.822 19.8103 286.271 19.8103Z" fill="white"/>
<path d="M94.1286 24.4721L94.0943 31.0534C94.0943 31.9675 94.346 32.6416 94.8496 33.0758C95.3531 33.51 95.994 33.7271 96.7722 33.7271C97.1613 33.7271 97.6763 33.67 98.3172 33.5557V38.0118C97.3559 38.1489 96.4289 38.2175 95.5362 38.2175C93.522 38.2175 91.9313 37.7262 90.764 36.7435C89.6195 35.738 89.0588 34.2413 89.0816 32.2531L89.116 24.4721H85.8887V20.1531H89.1503L89.1846 14.2916H94.1973L94.1629 20.1531H98.3172V24.4721H94.1286Z" fill="white"/>
<path d="M119.442 30.6078H107.254C107.3 31.7276 107.643 32.6074 108.284 33.2472C108.948 33.8871 109.84 34.207 110.962 34.207C112.747 34.207 113.834 33.5557 114.224 32.2531L119.271 32.4931C118.95 34.1841 118.023 35.5667 116.49 36.6407C114.979 37.7147 113.182 38.2517 111.099 38.2517C108.353 38.2517 106.132 37.4177 104.439 35.7495C102.768 34.0813 101.932 31.8418 101.932 29.031C101.932 26.1974 102.768 23.9579 104.439 22.3126C106.11 20.6444 108.284 19.8103 110.962 19.8103C113.548 19.8103 115.608 20.5987 117.142 22.1755C118.675 23.7294 119.442 25.8775 119.442 28.6197V30.6078ZM110.928 23.718C109.852 23.718 108.982 24.0379 108.318 24.6778C107.677 25.2948 107.323 26.1631 107.254 27.2829H114.395C114.349 26.1631 114.029 25.2948 113.434 24.6778C112.862 24.0379 112.026 23.718 110.928 23.718Z" fill="white"/>
<path d="M131.378 19.8103C133.782 19.8103 135.613 20.4159 136.872 21.6271C138.13 22.8382 138.76 24.6092 138.76 26.9401V37.8747H133.919V36.435C132.752 37.6462 131.241 38.2517 129.387 38.2517C127.556 38.2517 126.114 37.8061 125.061 36.9149C124.008 36.0008 123.482 34.6983 123.482 33.0073C123.482 29.6252 125.851 27.8313 130.589 27.6257L133.747 27.4543V26.7687C133.747 24.9406 132.98 24.0265 131.447 24.0265C130.646 24.0265 130.028 24.255 129.593 24.7121C129.181 25.1691 128.975 25.7175 128.975 26.3574L123.962 26.1517C123.962 24.5064 124.649 23.0439 126.022 21.7642C127.419 20.4616 129.204 19.8103 131.378 19.8103ZM133.747 30.7449L131.069 30.9163C129.353 30.9849 128.494 31.6019 128.494 32.7673C128.494 33.8413 129.181 34.3784 130.554 34.3784C131.493 34.3784 132.259 34.127 132.855 33.6243C133.45 33.1215 133.747 32.4131 133.747 31.499V30.7449Z" fill="white"/>
<path d="M165.012 19.8103C167.049 19.8103 168.674 20.4616 169.888 21.7642C171.124 23.0439 171.742 24.792 171.742 27.0087V37.8747H166.729V28.0027C166.729 26.8601 166.477 25.9918 165.974 25.3976C165.47 24.7806 164.738 24.4721 163.776 24.4721C162.907 24.4721 162.197 24.7349 161.648 25.2605C161.121 25.7861 160.801 26.5059 160.686 27.42V37.8747H155.674V28.0027C155.674 26.883 155.422 26.0146 154.918 25.3976C154.415 24.7806 153.705 24.4721 152.79 24.4721C151.806 24.4721 151.027 24.8035 150.455 25.4662C149.883 26.106 149.597 26.963 149.597 28.037V37.8747H144.584V20.1531H149.322V21.9698C150.238 20.5302 151.794 19.8103 153.991 19.8103C156.486 19.8103 158.34 20.7473 159.553 22.6211C160.744 20.7473 162.563 19.8103 165.012 19.8103Z" fill="white"/>
</svg>

<svg fill="none" height="49" width="293" xmlns="http://www.w3.org/2000/svg"><g fill="#fff"><path d="M62.6 0c4.8-.5 9 3.6 8.5 8.4L67.8 42c-.4 4-3.9 7-8 6.9l-39-1.4 36-4.2a3.8 3.8 0 0 0 3.4-3.5L63 10A3.8 3.8 0 0 0 58.8 6l-51.4 6c-2 .2-3.5 2-3.3 4.1l2.4 26-.1-.5L.2 15.6c-1-4.4 2-8.8 6.6-9.3z"/><path d="M46.6 9.3H57c1.2 0 2.1.9 2.3 2l1 8.1.7-9.2a2.3 2.3 0 0 0-2.6-2.4zM15.9 30.8v5.7c0 .8.2 1.3.6 1.7.4.4 1 .6 1.7.6.3 0 .7 0 1.3-.2v3.9l-2.4.1c-1.8 0-3.2-.4-4.2-1.2-1-.9-1.5-2.2-1.4-3.9v-6.7H8.7v-3.7h2.8v-5H16v5h3.6v3.7zM28.8 26.8c1.9 0 3.3.4 4.4 1.3 1 1 1.7 2.1 1.8 3.6l-4.3.3c0-1.3-.7-1.9-2-1.9-1.2 0-1.7.4-1.7 1.3v.3l.1.3.2.2.3.2.3.1a8 8 0 0 0 1.5.4l.6.2c1.8.4 3 1 4 1.6.8.7 1.2 1.6 1.2 2.9 0 1.6-.5 2.8-1.6 3.7a7.2 7.2 0 0 1-4.7 1.4c-2 0-3.5-.4-4.7-1.3a5 5 0 0 1-1.9-3.7l4.4-.2c0 1.2.8 1.9 2.2 1.9.6 0 1.1-.1 1.4-.4.4-.2.6-.6.6-1a1 1 0 0 0-.6-1l-2.2-.8a41.1 41.1 0 0 1-3.4-1c-.5-.3-.9-.6-1.1-.9-.3-.2-.5-.6-.7-1-.2-.5-.3-1-.3-1.7 0-1.5.5-2.6 1.6-3.5a7.1 7.1 0 0 1 4.6-1.3zM183 19.8c2.2 0 3.9.5 5 1.6a6 6 0 0 1 2.2 4.1l-5 .3c0-1.4-.8-2.2-2.3-2.2-1.3 0-2 .6-2 1.6v.3a67.5 67.5 0 0 0 1.1 1 9.2 9.2 0 0 0 1.7.4l.7.2c2 .5 3.5 1.2 4.5 2 1 .7 1.5 1.8 1.5 3.3 0 1.8-.6 3.2-2 4.3-1.2 1-3 1.6-5.3 1.6-2.2 0-4-.5-5.3-1.5a6 6 0 0 1-2.2-4.3l5-.3c0 1.5 1 2.2 2.6 2.2.6 0 1.2-.1 1.6-.4.4-.3.6-.7.6-1.2s-.2-1-.7-1.2c-.4-.2-1.2-.5-2.5-.8a47.3 47.3 0 0 1-3.9-1.3c-.6-.3-1-.6-1.3-1a5 5 0 0 1-.8-1.2c-.2-.6-.3-1.2-.3-1.9 0-1.7.6-3 1.9-4 1.2-1 3-1.6 5.2-1.6zM201.4 24.5V31c0 .9.3 1.5.8 2 .5.4 1.1.6 1.9.6l1.5-.1V38l-2.7.2c-2 0-3.6-.5-4.8-1.5-1.2-1-1.7-2.5-1.7-4.4v-7.8h-3.2v-4.3h3.3v-6h5v6h4.1v4.3zM220 20v4.8a5 5 0 0 0-3.5 1.1c-.8.8-1.3 1.8-1.3 3v9h-5V20.2h4.9v2c.9-1.5 2.5-2.2 4.8-2.2zM240.7 30.6h-12.2c0 1.1.4 2 1 2.6.7.7 1.6 1 2.7 1 1.8 0 2.9-.6 3.3-2l5 .3c-.3 1.7-1.2 3-2.8 4.1a9 9 0 0 1-5.3 1.7 9 9 0 0 1-6.7-2.6 9 9 0 0 1-2.5-6.7c0-2.8.8-5 2.5-6.7a8.8 8.8 0 0 1 6.5-2.5c2.6 0 4.7.8 6.2 2.4a8.8 8.8 0 0 1 2.3 6.4zm-8.5-6.9c-1 0-2 .3-2.6 1-.7.6-1 1.5-1 2.6h7c0-1.1-.3-2-1-2.6-.5-.7-1.3-1-2.4-1zM252.6 19.8c2.4 0 4.3.6 5.5 1.8 1.3 1.2 2 3 2 5.3v11h-5v-1.5a6 6 0 0 1-4.5 1.9c-1.8 0-3.2-.5-4.3-1.4-1-.9-1.6-2.2-1.6-3.9 0-3.4 2.4-5.2 7.1-5.4l3.2-.1v-.7c0-1.9-.8-2.8-2.3-2.8-.8 0-1.4.3-1.8.7-.5.5-.7 1-.7 1.7l-5-.2c0-1.7.7-3.2 2-4.4 1.5-1.3 3.3-2 5.4-2zm2.4 11-2.7.1c-1.7 0-2.5.7-2.5 1.9 0 1 .6 1.6 2 1.6 1 0 1.7-.3 2.3-.8.6-.5 1-1.2 1-2.1zM286.3 19.8c2 0 3.6.7 4.8 2 1.3 1.2 1.9 3 1.9 5.2V38h-5V28c0-1.1-.3-2-.8-2.6-.5-.6-1.2-1-2.2-1a3 3 0 0 0-2 .9c-.6.5-1 1.2-1 2.1V38h-5V28a4 4 0 0 0-.8-2.6c-.5-.6-1.2-1-2.2-1a3 3 0 0 0-2.3 1c-.6.7-.8 1.6-.8 2.6V38h-5V20.2h4.7V22c.9-1.5 2.5-2.2 4.6-2.2 2.5 0 4.4 1 5.6 2.8a6 6 0 0 1 5.5-2.8zM94.1 24.5V31c0 .9.2 1.5.7 2 .6.4 1.2.6 2 .6l1.5-.1V38l-2.8.2c-2 0-3.6-.5-4.7-1.5-1.2-1-1.7-2.5-1.7-4.4v-7.8H86v-4.3h3.3v-6h5v6h4.1v4.3zM119.4 30.6h-12.1c0 1.1.3 2 1 2.6.6.7 1.5 1 2.7 1 1.7 0 2.8-.6 3.2-2l5 .3c-.3 1.7-1.2 3-2.7 4.1a9 9 0 0 1-5.4 1.7 9 9 0 0 1-6.7-2.6A9 9 0 0 1 102 29c0-2.8.9-5 2.5-6.7a8.8 8.8 0 0 1 6.6-2.5c2.5 0 4.6.8 6.1 2.4a8.8 8.8 0 0 1 2.3 6.4zm-8.5-6.9c-1 0-2 .3-2.6 1-.6.6-1 1.5-1 2.6h7c0-1.1-.3-2-.9-2.6-.5-.7-1.4-1-2.5-1zM131.4 19.8c2.4 0 4.2.6 5.5 1.8 1.2 1.2 1.9 3 1.9 5.3v11h-4.9v-1.5a6 6 0 0 1-4.5 1.9c-1.8 0-3.3-.5-4.3-1.4-1-.9-1.6-2.2-1.6-3.9 0-3.4 2.4-5.2 7-5.4l3.2-.1v-.7c0-1.9-.7-2.8-2.3-2.8-.8 0-1.4.3-1.8.7-.4.5-.6 1-.6 1.7l-5-.2c0-1.7.6-3.2 2-4.4 1.4-1.3 3.2-2 5.4-2zm2.3 11-2.6.1c-1.7 0-2.6.7-2.6 1.9 0 1 .7 1.6 2 1.6 1 0 1.8-.3 2.4-.8.5-.5.8-1.2.8-2.1zM165 19.8c2 0 3.7.7 4.9 2 1.2 1.2 1.8 3 1.8 5.2V38h-5V28c0-1.1-.2-2-.7-2.6-.5-.6-1.3-1-2.2-1a3 3 0 0 0-2.2.9c-.5.5-.8 1.2-1 2.1V38h-5V28a4 4 0 0 0-.7-2.6c-.5-.6-1.2-1-2.1-1a3 3 0 0 0-2.3 1c-.6.7-.9 1.6-.9 2.6V38h-5V20.2h4.7V22c1-1.5 2.5-2.2 4.7-2.2 2.5 0 4.3 1 5.6 2.8a6 6 0 0 1 5.4-2.8z"/></g></svg>
